X: 29125
T: Nelson's Tonic
R: reel
M: 4/4
K: Gmajor
DEGA BAGE|DEGB A4|DEGA BAGE|DEGA G4:|
|:B2 BA BAGE|DEGB A4|B2 BA BAGE|DEGA G4:|

